X:1
T:Lamento (Moeder)
T:Lamento (Moeder)
T:Orgelalbum 1
T:Jef Tinel (1885-1972)
T:Ad van de Wege
C:Jef Tinel (1885-1972)
Z:Ad van de Wege
%%score { ( 1 2 ) | ( 3 4 ) }
L:1/8
M:3/4
K:F
V:1 treble nm="Orgel" snm="Org."
V:2 treble 
V:3 bass 
V:4 bass 
V:1
 D2 E2 F2 | D2 E2 F2 | D2 E2 F2 | G6 | E2 F2 G2 | A6 | F2 E2 F2 | [A,D]6 | A4 B2 | A4 G2 | F4 G2 | %11
 [FA]6 | [EG]6 | A4 B2 | A4 G2 | F4 G2 | A6 | D2 E2 F2 | (G6 | G2) A2 (G2 | G6) | E2 F2 G2 | %22
 A4 B2 |"^Rit.-----" A4 G2 | F6 | [^CE]6 |"^a tempo" D2 E2 F2 | D2 E2 F2 | D2 E2 F2 | [DG]6 | %30
 E2 F2 G2 | A6 | F2 E2 F2 | [A,D]6 |] %34
V:2
 D6 | (D6 | (D6) | D6) | (D6 | (D6) | D4) ^C2 | x6 | F2 G2 (F2 | F2) E2 (D2 | D4) E2 | x6 | x6 | %13
 F2 G2 (F2 | F2) E2 (D2 | D4) E2 | E6 | (D6 | D6) | (F6 | F2) D2 E2 | E2 (D4 | (D6) | D4) E2 | D6 | %25
 x6 | (D6 | (D6) | D6) | x6 | (D6 | (D6) | D4) ^C2 | x6 |] %34
V:3
!ped! F,2 G,2 A,2!ped-up! | F,2 G,2 A,2 | F,2 G,2 A,2 | G,6 | B,6 | (A,6 | A,2) G,4 | [D,,F,]6 | %8
"_senza ped." D2 E2 (D2 | D2) C2 (B,2 | B,2) A,2 [G,B,]2 | [F,A,]2 [G,B,]2 [A,C]2 | [B,D]6 | %13
 D2 E2 (D2 | D2) C2 (B,2 | B,2) A,2 [B,D]2 | ^C6 |!ped! A,6!ped-up! | G,2 A,2 B,2 | D6 | [C,C]6 | %21
 (A,6 | A,4) B,2 | A,4 B,2 | (A,6 | A,4) G,2 | F,2 G,2 A,2 | F,2 G,2 A,2 | F,2 G,2 A,2 | [B,,G,]6 | %30
 B,6 | (A,6 | A,2) G,4 |"_tijdsduur 1'50''" [D,,F,]6 |] %34
V:4
 D,,6 | D,,6 | D,,4 C,2 | B,,6 | G,,2 F,,2 E,,2 | F,,2 E,,2 F,,2 | G,,2 A,,2 A,,2 | x6 | x6 | x6 | %10
 x6 | x6 | x6 | x6 | x6 | x6 | A,6 | F,2 E,2 D,2 | B,,2 A,,2 G,,2 | B,,4 =B,,2 | x6 | %21
 ^C,,2 D,,2 E,,2 | F,,2 D,,2 G,,2 | F,,2 D,,2 G,,2 | A,,2 B,,2 ^G,,2 | A,,6 | (D,,6 | (D,,6) | %28
 D,,4) C,2 | x6 | G,,2 F,,2 E,,2 | F,,2 E,,2 F,,2 | G,,2 A,,2 A,,2 | x6 |] %34

